public/patterns/pattern-1.svg

<svg  viewBox="0 0 221 207" fill="none" xmlns="http://www.w3.org/2000/svg">
<path d="M28.563 186.866V181.372L44 172.458L59.441 181.372V186.866L44 195.781L28.563 186.866ZM72.563 186.866V181.372L88.004 172.458L103.445 181.372V186.866L88.004 195.781L72.563 186.866ZM116.563 186.866V181.372L132.004 172.458L147.445 181.372V186.866L132.004 195.781L116.563 186.866ZM160.563 186.866V181.372L176.004 172.458L191.444 181.372V186.866L176.004 195.781L160.563 186.866ZM17.463 180.196L6.546 173.896V163.445L22 172.36L37.441 163.445V173.893L26.524 180.193V198.488L22.1 195.937L22 196.113L21.9 195.937L17.478 198.49L17.463 180.196ZM61.463 180.196L50.546 173.896V163.445L65.987 172.36L81.428 163.445V173.893L70.511 180.193V198.488L66.089 195.935L65.989 196.111L65.889 195.935L61.467 198.488L61.463 180.196ZM105.463 180.196L94.547 173.896V163.445L109.988 172.36L125.429 163.445V173.893L114.513 180.193V198.488L110.09 195.935L109.99 196.111L109.89 195.935L105.468 198.488L105.463 180.196ZM149.463 180.196L138.546 173.896V163.445L153.987 172.36L169.428 163.445V173.893L158.511 180.193V198.488L154.089 195.935L153.989 196.111L153.889 195.935L149.467 198.488L149.463 180.196ZM193.463 180.196L182.546 173.896V163.445L197.987 172.36L213.428 163.445V173.893L202.512 180.193V198.488L198.09 195.935L197.99 196.111L197.89 195.935L193.468 198.488L193.463 180.196ZM22 146.685L35.778 154.639L37.441 155.599V161.093L22 170.003L6.561 161.093V155.603L8.225 154.643L22 146.685ZM66 146.685L79.778 154.639L81.441 155.599V161.093L66.006 170.003L50.565 161.093V155.603L52.229 154.643L66 146.685ZM110 146.685L123.777 154.639L125.441 155.599V161.093L110.009 170.003L94.569 161.093V155.603L96.232 154.643L110 146.685ZM154 146.685L167.778 154.639L169.441 155.599V161.093L154.013 170.003L138.572 161.088V155.603L140.235 154.643L154 146.685ZM182.563 161.093V155.603L184.226 154.643L198.003 146.689L211.781 154.643L213.444 155.603V161.097L198.016 170.003L182.563 161.093ZM59.444 137.672V148.12L48.527 154.42V172.714L44.105 170.161L44.005 170.337L43.905 170.161L39.483 172.714V154.423L28.567 148.123V137.672L44 146.587L59.444 137.672ZM103.444 137.672V148.12L92.527 154.42V172.714L88.105 170.161L88.005 170.337L87.905 170.161L83.483 172.714V154.423L72.566 148.123V137.672L88.007 146.586L103.444 137.672ZM147.444 137.672V148.12L136.527 154.42V172.714L132.105 170.161L132.005 170.337L131.905 170.161L127.483 172.714V154.423L116.566 148.123V137.672L132.007 146.586L147.444 137.672ZM191.444 137.672V148.12L180.527 154.42V172.714L176.105 170.161L176.005 170.337L175.905 170.161L171.483 172.714V154.423L160.567 148.123V137.672L176.008 146.586L191.444 137.672ZM28.563 135.32V129.826L44 120.911L59.441 129.826V135.32L44 144.235L28.563 135.32ZM72.563 135.32V129.826L88.004 120.911L103.445 129.826V135.32L88.004 144.234L72.563 135.32ZM116.563 135.32V129.826L132.004 120.911L147.445 129.826V135.32L132.004 144.234L116.563 135.32ZM160.563 135.32V129.826L176.004 120.911L191.444 129.826V135.32L176.004 144.234L160.563 135.32ZM17.463 128.65L6.546 122.35V111.903L22 120.814L37.443 111.903V122.351L26.526 128.651V146.946L22.1 144.391L22 144.568L21.9 144.391L17.478 146.944L17.463 128.65ZM61.463 128.65L50.546 122.35V111.903L65.987 120.818L81.446 111.903V122.351L70.529 128.651V146.946L66.107 144.393L66.007 144.57L65.907 144.393L61.485 146.946L61.463 128.65ZM105.463 128.65L94.547 122.35V111.903L109.988 120.818L125.45 111.903V122.351L114.534 128.651V146.946L110.111 144.393L110.011 144.57L109.911 144.393L105.489 146.946L105.463 128.65ZM149.463 128.65L138.546 122.35V111.903L153.987 120.818L169.428 111.904V122.352L158.511 128.652V146.947L154.089 144.394L153.989 144.571L153.889 144.394L149.467 146.947L149.463 128.65ZM193.463 128.65L182.546 122.35V111.903L197.987 120.818L213.428 111.904V122.352L202.512 128.652V146.947L198.09 144.394L197.99 144.571L197.89 144.394L193.468 146.947L193.463 128.65ZM22 95.1379L35.778 103.092L37.441 104.052V109.546L22 118.461L6.561 109.547V104.053L8.225 103.093L22 95.1379ZM66 95.1379L79.778 103.092L81.441 104.052V109.546L66 118.46L50.559 109.545V104.053L52.223 103.093L66 95.1379ZM110 95.1379L123.777 103.092L125.441 104.052V109.546L110 118.46L94.559 109.545V104.053L96.222 103.093L110 95.1379ZM154 95.1379L167.778 103.092L169.441 104.052V109.546L154 118.46L138.559 109.545V104.053L140.222 103.093L154 95.1379ZM182.563 109.546V104.053L184.226 103.093L198.003 95.1389L211.781 103.093L213.444 104.053V109.547L198.003 118.461L182.563 109.546ZM59.444 86.1259V96.5739L48.527 102.874V121.168L44.105 118.615L44.005 118.791L43.905 118.615L39.483 121.168V102.877L28.567 96.5769V86.1259L44 95.0399L59.444 86.1259ZM103.444 86.1259V96.5739L92.527 102.874V121.168L88.105 118.615L88.005 118.791L87.905 118.615L83.483 121.168V102.877L72.566 96.5769V86.1259L88.007 95.0399L103.444 86.1259ZM147.444 86.1259V96.5739L136.527 102.874V121.168L132.105 118.615L132.005 118.791L131.905 118.615L127.483 121.168V102.877L116.566 96.5769V86.1259L132.007 95.0399L147.444 86.1259ZM191.444 86.1259V96.5739L180.527 102.874V121.168L176.105 118.615L176.005 118.791L175.905 118.615L171.483 121.168V102.877L160.567 96.5769V86.1259L176.008 95.0399L191.444 86.1259ZM28.563 83.7739V78.2799L44 69.3649L59.441 78.2799V83.7739L44 92.6879L28.563 83.7739ZM72.563 83.7739V78.2799L88.004 69.3649L103.445 78.2799V83.7739L88.007 92.6879L72.563 83.7739ZM116.563 83.7739V78.2799L132.004 69.3649L147.445 78.2799V83.7739L132.004 92.6889L116.563 83.7739ZM160.563 83.7739V78.2799L176.004 69.3649L191.444 78.2799V83.7739L176.004 92.6889L160.563 83.7739ZM17.478 77.1029L6.561 70.8029V60.3529L22 69.2679L37.443 60.3529V70.8029L26.526 77.1029V95.4029L22.1 92.8449L22 93.0209L21.9 92.8449L17.478 95.3979V77.1029ZM61.478 77.1029L50.565 70.8029V60.3529L66.006 69.2679L81.446 60.3529V70.8029L70.53 77.1029V95.4029L66.108 92.8499L66.008 93.0259L65.908 92.8499L61.486 95.4029L61.478 77.1029ZM105.478 77.1029L94.569 70.8029V60.3529L110.01 69.2679L125.45 60.3529V70.8029L114.534 77.1029V95.4029L110.111 92.8499L110.011 93.0259L109.911 92.8499L105.489 95.4029L105.478 77.1029ZM149.478 77.1029L138.561 70.8029V60.3529L154.002 69.2679L169.443 60.3529V70.8029L158.526 77.1029V95.4029L154.104 92.8499L154.004 93.0259L153.904 92.8499L149.482 95.4029L149.478 77.1029ZM193.478 77.1029L182.561 70.8029V60.3529L198.002 69.2679L213.443 60.3529V70.8029L202.527 77.1029V95.4029L198.105 92.8499L198.005 93.0259L197.905 92.8499L193.483 95.4029L193.478 77.1029ZM22 43.5919L35.778 51.5459L37.441 52.5059V58.0029L22 66.9149L6.561 58.0029V52.5029L8.225 51.5429L22 43.5919ZM66 43.5919L79.778 51.5459L81.441 52.5059V58.0029L66.006 66.9149L50.565 58.0029V52.5029L52.229 51.5429L66 43.5919ZM110 43.5919L123.777 51.5459L125.441 52.5059V58.0029L110 66.9179L94.569 58.0029V52.5029L96.232 51.5429L110 43.5919ZM154 43.5919L167.778 51.5459L169.441 52.5059V58.0029L154 66.9179L138.572 58.0029V52.5029L140.235 51.5429L154 43.5919ZM182.576 58.0029V52.5029L184.239 51.5429L198.016 43.5889L211.794 51.5429L213.457 52.5029V58.0029L198.016 66.9179L182.576 58.0029ZM59.444 34.5799V45.0279L48.527 51.3279V69.6249L44.105 67.0719L44.005 67.2479L43.905 67.0719L39.48 69.6249V51.3299L28.564 45.0299V34.5799L44 43.4939L59.444 34.5799ZM103.444 34.5799V45.0279L92.527 51.3279V69.6249L88.105 67.0719L88.005 67.2479L87.905 67.0719L83.483 69.6249V51.3299L72.566 45.0299V34.5799L88.007 43.4939L103.444 34.5799ZM147.444 34.5799V45.0279L136.527 51.3279V69.6249L132.105 67.0719L132.005 67.2479L131.905 67.0719L127.483 69.6249V51.3299L116.566 45.0299V34.5799L132.007 43.4939L147.444 34.5799ZM191.444 34.5799V45.0279L180.527 51.3279V69.6249L176.105 67.0719L176.005 67.2479L175.905 67.0719L171.483 69.6249V51.3299L160.567 45.0299V34.5799L176.008 43.4939L191.444 34.5799ZM28.563 32.2279V26.7329L44 17.8189L59.444 26.7329V32.2269L44 41.1419L28.563 32.2279ZM72.563 32.2279V26.7329L88.004 17.8189L103.445 26.7329V32.2269L88.007 41.1419L72.563 32.2279ZM116.563 32.2279V26.7329L132.004 17.8189L147.445 26.7329V32.2269L132.004 41.1409L116.563 32.2279ZM160.563 32.2279V26.7329L176.004 17.8189L191.444 26.7329V32.2269L176.004 41.1409L160.563 32.2279ZM37.443 8.80293V19.2549L26.526 25.5549V43.8509L22.1 41.3029L22 41.4789L21.9 41.3029L17.478 43.8559V25.5569L6.561 19.2569V8.80293L22 17.7209L37.443 8.80293ZM81.443 8.80293V19.2549L70.526 25.5549V43.8509L66.107 41.3029L66.007 41.4789L65.907 41.3029L61.485 43.8559V25.5569L50.568 19.2569V8.80293L66.009 17.7169L81.443 8.80293ZM125.443 8.80293V19.2549L114.527 25.5549V43.8509L110.111 41.3029L110.011 41.4789L109.911 41.3029L105.489 43.8559V25.5569L94.573 19.2569V8.80293L110.014 17.7169L125.443 8.80293ZM169.443 8.80293V19.2549L158.526 25.5549V43.8509L154.115 41.3029L154.015 41.4789L153.915 41.3029L149.493 43.8559V25.5569L138.576 19.2569V8.80293L154.017 17.7169L169.443 8.80293ZM213.443 8.80293V19.2549L202.527 25.5549V43.8509L198.118 41.3029L198.018 41.4789L197.918 41.3029L193.496 43.8559V25.5569L182.579 19.2569V8.80293L198.02 17.7169L213.443 8.80293ZM211.794 0.00292969L213.457 0.96293V6.45393L198.016 15.3679L182.576 6.45393V0.95993L184.239 0.00292969H180.539V18.0789L176.117 15.5259L176.017 15.7019L175.917 15.5259L171.495 18.0789V0.00292969H167.795L169.458 0.96293V6.45393L154.017 15.3679L138.572 6.45393V0.95993L140.235 0.00292969H136.535V18.0789L132.113 15.5259L132.013 15.7019L131.913 15.5259L127.491 18.0789V0.00292969H123.791L125.455 0.96293V6.45393L110.014 15.3679L94.569 6.45393V0.95993L96.232 0.00292969H92.532V18.0789L88.11 15.5259L88.01 15.7019L87.91 15.5259L83.488 18.0789V0.00292969H79.788L81.451 0.96293V6.45393L66.006 15.3689L50.565 6.45393V0.95993L52.228 0.00292969H48.528V18.0789L44.106 15.5259L44 15.7029L43.9 15.5269L39.48 18.0789V0.00292969H35.78L37.443 0.96293V6.45393L22 15.3689L6.561 6.45393V0.95993L8.225 0.00292969H4.525V18.0789L0.1 15.5249L0 15.7029V17.8199L15.441 26.7329V32.2269L0 41.1419V43.4939L15.441 34.5799V45.0279L4.524 51.3279V69.6249L0.1 67.0709L0 67.2469V69.3639L15.441 78.2789V83.7729L0 92.6879V95.0399L15.441 86.1259V96.5739L4.524 102.874V121.168L0.1 118.618L0 118.794V120.911L15.441 129.826V135.32L0 144.235V146.587L15.441 137.673V148.121L4.524 154.421V172.715L0.1 170.164L0 170.34V172.457L15.441 181.371V186.865L0 195.781V198.133L15.441 189.219V199.667L4.524 205.967V206.183H8.224L22 198.231L35.778 206.185H39.478V205.969L28.562 199.669V189.219L44 198.133L59.441 189.219V199.667L48.524 205.967V206.183H52.224L66.001 198.229L79.779 206.183H83.479V205.967L72.562 199.667V189.219L88.003 198.133L103.444 189.219V199.667L92.527 205.967V206.183H96.227L110.004 198.229L123.781 206.183H127.481V205.967L116.564 199.667V189.219L132.005 198.133L147.446 189.219V199.667L136.529 205.967V206.183H140.229L154.007 198.229L167.785 206.183H171.485V205.967L160.569 199.667V189.219L176.01 198.133L191.45 189.219V199.667L180.533 205.967V206.183H184.233L198.01 198.229L211.788 206.183H215.488V205.967L204.571 199.667V189.219L220.011 198.133V195.781L204.571 186.866V181.372L220.011 172.458V170.341L219.911 170.165L215.489 172.718V154.423L204.572 148.123V137.672L220.012 146.586V144.234L204.572 135.32V129.826L220.012 120.911V118.794L219.912 118.618L215.49 121.171V102.877L204.573 96.5769V86.1259L220.013 95.0399V92.6879L204.573 83.7729V78.2799L220.013 69.3649V67.2479L219.913 67.0719L215.491 69.6249V51.3299L204.574 45.0299V34.5799L220.014 43.4939V41.1419L204.574 32.2279V26.7329L220.014 17.8189V15.7029L219.914 15.5269L215.492 18.0799V0.00292969H211.794Z" fill="black"/>
</svg>

<svg xmlns="http://www.w3.org/2000/svg" width="220.018" height="206.185" viewBox="0 0 220.018 206.185">
  <path id="Path_12719" data-name="Path 12719" d="M28.563,186.863v-5.494L44,172.455l15.441,8.914v5.494L44,195.778Zm44,0v-5.494l15.441-8.914,15.441,8.914v5.494l-15.441,8.915Zm44,0v-5.494l15.441-8.914,15.441,8.914v5.494l-15.441,8.915Zm44,0v-5.494l15.441-8.914,15.44,8.914v5.494l-15.44,8.915Zm-143.1-6.67-10.917-6.3V163.442L22,172.357l15.441-8.915v10.448l-10.917,6.3v18.295L22.1,195.934l-.1.176-.1-.176-4.422,2.553Zm44,0-10.917-6.3V163.442l15.441,8.915,15.441-8.915v10.448l-10.917,6.3v18.295l-4.422-2.553-.1.176-.1-.176-4.422,2.553Zm44,0-10.916-6.3V163.442l15.441,8.915,15.441-8.915v10.448l-10.916,6.3v18.295l-4.423-2.553-.1.176-.1-.176-4.422,2.553Zm44,0-10.917-6.3V163.442l15.441,8.915,15.441-8.915v10.448l-10.917,6.3v18.295l-4.422-2.553-.1.176-.1-.176-4.422,2.553Zm44,0-10.917-6.3V163.442l15.441,8.915,15.441-8.915v10.448l-10.916,6.3v18.295l-4.422-2.553-.1.176-.1-.176-4.422,2.553ZM22,146.682l13.778,7.954h0l1.663.96v5.494L22,170,6.561,161.09V155.6l1.664-.96h0Zm44,0,13.778,7.954h0l1.663.96v5.494L66.006,170,50.565,161.09V155.6l1.664-.96h0Zm44,0,13.777,7.954h0l1.664.96v5.494L110.009,170,94.569,161.09V155.6l1.663-.96h0Zm44,0,13.778,7.954h0l1.663.96v5.494L154.013,170l-15.441-8.915V155.6l1.663-.96h0Zm28.563,14.408V155.6l1.663-.96,13.777-7.954,13.778,7.954,1.663.96v5.494L198.016,170ZM59.444,137.669v10.448l-10.917,6.3v18.294l-4.422-2.553-.1.176-.1-.176-4.422,2.553V154.42l-10.916-6.3V137.669L44,146.584Zm44,0v10.448l-10.917,6.3v18.294l-4.422-2.553-.1.176-.1-.176-4.422,2.553V154.42l-10.917-6.3V137.669l15.441,8.914Zm44,0v10.448l-10.917,6.3v18.294l-4.422-2.553-.1.176-.1-.176-4.422,2.553V154.42l-10.917-6.3V137.669l15.441,8.914Zm44,0v10.448l-10.917,6.3v18.294l-4.422-2.553-.1.176-.1-.176-4.422,2.553V154.42l-10.916-6.3V137.669l15.441,8.914ZM28.563,135.317v-5.494L44,120.908l15.441,8.915v5.494L44,144.232Zm44,0v-5.494l15.441-8.915,15.441,8.915v5.494l-15.441,8.914Zm44,0v-5.494l15.441-8.915,15.441,8.915v5.494l-15.441,8.914Zm44,0v-5.494l15.441-8.915,15.44,8.915v5.494l-15.44,8.914Zm-143.1-6.67-10.917-6.3V111.9L22,120.811,37.443,111.9v10.448l-10.917,6.3v18.295L22.1,144.388l-.1.177-.1-.177-4.422,2.553Zm44,0-10.917-6.3V111.9l15.441,8.915L81.446,111.9v10.448l-10.917,6.3v18.295l-4.422-2.553-.1.177-.1-.177-4.422,2.553Zm44,0-10.916-6.3V111.9l15.441,8.915L125.45,111.9v10.448l-10.916,6.3v18.295l-4.423-2.553-.1.177-.1-.177-4.422,2.553Zm44,0-10.917-6.3V111.9l15.441,8.915,15.441-8.914v10.448l-10.917,6.3v18.295l-4.422-2.553-.1.177-.1-.177-4.422,2.553Zm44,0-10.917-6.3V111.9l15.441,8.915,15.441-8.914v10.448l-10.916,6.3v18.295l-4.422-2.553-.1.177-.1-.177-4.422,2.553ZM22,95.135l13.778,7.954h0l1.663.96v5.494L22,118.458,6.561,109.544V104.05l1.664-.96h0Zm44,0,13.778,7.954h0l1.663.96v5.494l-15.441,8.914-15.441-8.915V104.05l1.664-.96h0Zm44,0,13.777,7.954h0l1.664.96v5.494l-15.441,8.914-15.441-8.915V104.05l1.663-.96h0Zm44,0,13.778,7.954h0l1.663.96v5.494l-15.441,8.914-15.441-8.915V104.05l1.663-.96h0Zm28.563,14.408V104.05l1.663-.96,13.777-7.954,13.778,7.954,1.663.96v5.494l-15.441,8.914ZM59.444,86.123V96.571l-10.917,6.3v18.294l-4.422-2.553-.1.176-.1-.176-4.422,2.553V102.874l-10.916-6.3V86.123L44,95.037Zm44,0V96.571l-10.917,6.3v18.294l-4.422-2.553-.1.176-.1-.176-4.422,2.553V102.874l-10.917-6.3V86.123l15.441,8.914Zm44,0V96.571l-10.917,6.3v18.294l-4.422-2.553-.1.176-.1-.176-4.422,2.553V102.874l-10.917-6.3V86.123l15.441,8.914Zm44,0V96.571l-10.917,6.3v18.294l-4.422-2.553-.1.176-.1-.176-4.422,2.553V102.874l-10.916-6.3V86.123l15.441,8.914ZM28.563,83.771V78.277L44,69.362l15.441,8.915v5.494L44,92.685Zm44,0V78.277l15.441-8.915,15.441,8.915v5.494L88.007,92.685Zm44,0V78.277l15.441-8.915,15.441,8.915v5.494l-15.441,8.915Zm44,0V78.277l15.441-8.915,15.44,8.915v5.494l-15.44,8.915ZM17.478,77.1,6.561,70.8V60.35L22,69.265,37.443,60.35V70.8L26.526,77.1V95.4L22.1,92.842l-.1.176-.1-.176-4.422,2.553Zm44,0L50.565,70.8V60.35l15.441,8.915L81.446,60.35V70.8L70.53,77.1V95.4l-4.422-2.553-.1.176-.1-.176-4.422,2.553Zm44,0L94.569,70.8V60.35l15.441,8.915L125.45,60.35V70.8l-10.916,6.3V95.4l-4.423-2.553-.1.176-.1-.176-4.422,2.553Zm44,0-10.917-6.3V60.35l15.441,8.915,15.441-8.915V70.8l-10.917,6.3V95.4l-4.422-2.553-.1.176-.1-.176-4.422,2.553Zm44,0-10.917-6.3V60.35l15.441,8.915,15.441-8.915V70.8l-10.916,6.3V95.4l-4.422-2.553-.1.176-.1-.176-4.422,2.553ZM22,43.589l13.778,7.954h0l1.663.96V58L22,66.912,6.561,58V52.5l1.664-.96h0Zm44,0,13.778,7.954h0l1.663.96V58L66.006,66.912,50.565,58V52.5l1.664-.96h0Zm44,0,13.777,7.954h0l1.664.96V58l-15.441,8.915L94.569,58V52.5l1.663-.96h0Zm44,0,13.778,7.954h0l1.663.96V58l-15.441,8.915L138.572,58V52.5l1.663-.96h0ZM182.576,58V52.5l1.663-.96,13.777-7.954,13.778,7.954,1.663.96V58l-15.441,8.915ZM59.444,34.577V45.025l-10.917,6.3V69.622l-4.422-2.553-.1.176-.1-.176L39.48,69.622V51.327l-10.916-6.3V34.577L44,43.491Zm44,0V45.025l-10.917,6.3V69.622l-4.422-2.553-.1.176-.1-.176-4.422,2.553V51.327l-10.917-6.3V34.577l15.441,8.914Zm44,0V45.025l-10.917,6.3V69.622l-4.422-2.553-.1.176-.1-.176-4.422,2.553V51.327l-10.917-6.3V34.577l15.441,8.914Zm44,0V45.025l-10.917,6.3V69.622l-4.422-2.553-.1.176-.1-.176-4.422,2.553V51.327l-10.916-6.3V34.577l15.441,8.914ZM28.563,32.225V26.73L44,17.816,59.444,26.73v5.494L44,41.139Zm44,0V26.73l15.441-8.914,15.441,8.914v5.494L88.007,41.139Zm44,0V26.73l15.441-8.914,15.441,8.914v5.494l-15.441,8.914Zm44,0V26.73l15.441-8.914,15.44,8.914v5.494l-15.44,8.914ZM37.443,8.8V19.252l-10.917,6.3V43.848L22.1,41.3l-.1.176-.1-.176-4.422,2.553V25.554l-10.917-6.3V8.8L22,17.718Zm44,0V19.252l-10.917,6.3V43.848L66.107,41.3l-.1.176-.1-.176-4.422,2.553V25.554l-10.917-6.3V8.8l15.441,8.914Zm44,0V19.252l-10.916,6.3V43.848L110.111,41.3l-.1.176-.1-.176-4.422,2.553V25.554l-10.916-6.3V8.8l15.441,8.914Zm44,0V19.252l-10.917,6.3V43.848L154.115,41.3l-.1.176-.1-.176-4.422,2.553V25.554l-10.917-6.3V8.8l15.441,8.914Zm44,0V19.252l-10.916,6.3V43.848L198.118,41.3l-.1.176-.1-.176-4.422,2.553V25.554l-10.917-6.3V8.8l15.441,8.914ZM211.794,0l1.663.96V6.451l-15.441,8.914L182.576,6.451V.957L184.239,0h-3.7V18.076l-4.422-2.553-.1.176-.1-.176-4.422,2.553V0h-3.7l1.663.96V6.451l-15.441,8.914L138.572,6.451V.957L140.235,0h-3.7V18.076l-4.422-2.553-.1.176-.1-.176-4.422,2.553V0h-3.7l1.664.96V6.451l-15.441,8.914L94.569,6.451V.957L96.232,0h-3.7V18.076l-4.422-2.553-.1.176-.1-.176-4.422,2.553V0h-3.7l1.663.96V6.451L66.006,15.366,50.565,6.451V.957L52.228,0h-3.7V18.076l-4.422-2.553L44,15.7l-.1-.176L39.48,18.076V0h-3.7l1.663.96V6.451L22,15.366,6.561,6.451V.957L8.225,0h-3.7V18.076L.1,15.522,0,15.7H0v2.117H0L15.441,26.73v5.494L0,41.139v2.352l15.441-8.914V45.025l-10.917,6.3V69.622L.1,67.068l-.1.176H0v2.117H0l15.441,8.915v5.494L0,92.685v2.352l15.441-8.914V96.571l-10.917,6.3v18.294L.1,118.615l-.1.176H0v2.117H0l15.441,8.915v5.494L0,144.232v2.352l15.441-8.914v10.448l-10.917,6.3v18.294L.1,170.161l-.1.176H0v2.117H0l15.441,8.914v5.494L0,195.778v2.352l15.441-8.914v10.448l-10.917,6.3v.216h3.7L22,198.228l13.778,7.954h3.7v-.216l-10.916-6.3V189.216L44,198.13l15.441-8.914v10.448l-10.917,6.3v.216h3.7l13.777-7.954,13.778,7.954h3.7v-.216l-10.917-6.3V189.216l15.441,8.914,15.441-8.914v10.448l-10.917,6.3v.216h3.7l13.777-7.954,13.777,7.954h3.7v-.216l-10.917-6.3V189.216l15.441,8.914,15.441-8.914v10.448l-10.917,6.3v.216h3.7l13.778-7.954,13.778,7.954h3.7v-.216l-10.916-6.3V189.216l15.441,8.914,15.44-8.914v10.448l-10.917,6.3v.216h3.7l13.777-7.954,13.778,7.954h3.7v-.216l-10.917-6.3V189.216l15.44,8.914v-2.352l-15.44-8.915v-5.494l15.44-8.914v-2.117l-.1-.176-4.422,2.553V154.42l-10.917-6.3V137.669l15.44,8.914v-2.352l-15.44-8.914v-5.494l15.44-8.915v-2.117l-.1-.176-4.422,2.553V102.874l-10.917-6.3V86.123l15.44,8.914V92.685l-15.44-8.915V78.277l15.44-8.915V67.245l-.1-.176-4.422,2.553V51.327l-10.917-6.3V34.577l15.44,8.914V41.139l-15.44-8.914V26.73l15.44-8.914V15.7l-.1-.176-4.422,2.553V0Z" transform="translate(0 0.003)" fill="#3e3b46"/>
</svg>
